X:1
T:Within thy paths that are most pure
T:John Arnold
T:Text: Thomas Sternhold, on Ps. 17
T:This edition by Edmund Gooch released into the public domain, April 2015.
T:Within thy paths that are most pure
T:PSALM XVII, Verse 5, 6, 7, 8.
C:John Arnold
Z:Text: Thomas Sternhold, on Ps. 17
%%score [ 1 2 3 4 ]
L:1/8
M:2/2
K:C
V:1 treble nm="SOPRANO" snm="S."
V:2 treble nm="ALTO" snm="A."
V:3 treble-8 transpose=-12 nm="TENOR" snm="T."
V:4 bass nm="BASS" snm="B."
V:1
 z4 A4 | (c2 B2) A4 | B4 A4 | (B2 A2) ^G4 | A8 | z4 ^G4 | (A2 B2) c4 | B4 A4 | ^G8 | z4 B4 | %10
w: O|thou, _ the|sa- viour|of _ all|them|That|put _ their|trust in|thee!|De-|
w: With-|in _ thy|paths that|are _ most|pure,|Me|guide, _ Lord,|and pre-|serve;|Then,|
w: For|I _ do|call to|thee, _ O|Lord,|And|sure _ thou|wilt me|aid:|Then|
 B4 A4 | (B2 c2) d4 | c4 (B2 A2) | ^G8 | z4 ^G4 | B4 A4 | (B2 A2) ^G4 | A8 |] %18
w: clare thy|pow’r _ on|them that _|spurn|A-|gainst thy|ma- * jes-|ty.|
w: from the|ways _ where-|in I _|walk,|My|steps shall|ne- * ver|swerve.|
w: hear my|pray’r, _ and|weigh right _|well|The|words that|I _ have|said.|
V:2
 z4 E4 | E4 F4 | G4 F4 | F4 E4 | E8 | z4 E4 | E4 F4 | F4 E4 | E8 | z4 G4 | (G2 F2) (E2 F2) | %11
w: O|thou, the|sa- viour|of all|them|That|put their|trust in|thee!|De-|clare _ thy _|
w: With-|in thy|paths that|are most|pure,|Me|guide, Lord,|and pre-|serve;|Then,|from _ the _|
w: For|I do|call to|thee, O|Lord,|And|sure thou|wilt me|aid:|Then|hear _ my _|
 G4 G4 | E4 F4 | E8 | z4 E4 | E4 C4 | F4 E4 | E8 |] %18
w: pow’r on|them that|spurn|A-|gainst thy|ma- jes-|ty.|
w: ways where-|in I|walk,|My|steps shall|ne- ver|swerve.|
w: pray’r, and|weigh right|well|The|words that|I have|said.|
V:3
 z4 A4 | (A2 B2) c4 | (e2 d2) c4 | (d2 c2) B4 | A8 | z4 B4 | (c2 B2) A4 | d4 c4 | B8 | z4 e4 | %10
w: O|thou, _ the|sa- * viour|of _ all|them|That|put _ their|trust in|thee!|De-|
w: With-|in _ thy|paths _ that|are _ most|pure,|Me|guide, _ Lord,|and pre-|serve;|Then,|
w: For|I _ do|call _ to|thee, _ O|Lord,|And|sure _ thou|wilt me|aid:|Then|
 (e2 d2) c4 | (d2 c2) B4 | c4 (d2 c2) | B8 | z4 B4 | ^G4 A4 | (d2 c2) B4 | A8 |] %18
w: clare _ thy|pow’r _ on|them that _|spurn|A-|gainst thy|ma- * jes-|ty.|
w: from _ the|ways _ where-|in I _|walk,|My|steps shall|ne- * ver|swerve.|
w: hear _ my|pray’r, _ and|weigh right _|well|The|words that|I _ have|said.|
V:4
 z4 A,4 | (A,2 G,2) F,4 | E,4 F,4 | D,4 E,4 | A,,8 | z4 E,4 | (A,2 G,2) F,4 | D,4 A,,4 | E,8 | %9
w: O|thou, _ the|sa- viour|of all|them|That|put _ their|trust in|thee!|
w: With-|in _ thy|paths that|are most|pure,|Me|guide, _ Lord,|and pre-|serve;|
w: For|I _ do|call to|thee, O|Lord,|And|sure _ thou|wilt me|aid:|
"^Notes: Original clefs are treble, alto, tenor and bass. The text of the first verse only is underlaid in the source,with the three subsequent verses given here printed after the music: these have been underlaid editorially." z4 E,4 | %10
w: De-|
w: Then,|
w: Then|
 E,4 A,4 | G,4 G,4 | A,4 D,4 | E,8 | z4 E,4 | E,4 F,4 | D,4 E,4 | A,,8 |] %18
w: clare thy|pow’r on|them that|spurn|A-|gainst thy|ma- jes-|ty.|
w: from the|ways where-|in I|walk,|My|steps shall|ne- ver|swerve.|
w: hear my|pray’r, and|weigh right|well|The|words that|I have|said.|

